Newaita/actions/symbolic/xapp-go-history-previous-symbolic.svg

<svg height="16" viewBox="0 0 16 16" width="16" xmlns="http://www.w3.org/2000/svg"><g fill="#424242"><path d="m9.605469 3.761719c0 .914062-.742188 1.65625-1.65625 1.65625-.910157 0-1.652344-.742188-1.652344-1.65625 0-.910157.742187-1.652344 1.652344-1.652344.914062 0 1.65625.742187 1.65625 1.652344zm0 0"/><path d="m13.90625 3.761719c0 .914062-.742188 1.65625-1.65625 1.65625s-1.652344-.742188-1.652344-1.65625c0-.910157.738282-1.652344 1.652344-1.652344s1.65625.742187 1.65625 1.652344zm0 0"/><path d="m5.304688 3.761719c0 .914062-.742188 1.65625-1.652344 1.65625-.914063 0-1.65625-.742188-1.65625-1.65625 0-.910157.742187-1.652344 1.65625-1.652344.910156 0 1.652344.742187 1.652344 1.652344zm0 0"/><path d="m444.957509 85.346318c0-5.874439-4.749547-10.623985-10.623986-10.623985h-222.72873c3.249689-25.372577 10.374009-51.620071 21.372959-80.74229 3.87463-10.498997-8.374201-19.37315-17.123365-12.498806l-148.110856 116.363888c-5.624463 4.374582-5.624463 12.87377 0 17.248353l148.110856 116.488876c7.12432 5.499474 17.373341.62494 17.748305-8.249213.124988-1.499856-.124988-2.874725-.62494-4.249594-10.99895-29.247207-18.12327-55.4947-21.372959-80.867277h222.72873c5.874439 0 10.623986-4.749547 10.623986-10.498998zm0 0" stroke="#000" stroke-width=".264583" transform="matrix(.031253 0 0 .031253 0 6.719392)"/></g></svg>

<?xml version="1.0" encoding="UTF-8"?>
<svg xmlns="http://www.w3.org/2000/svg" xmlns:xlink="http://www.w3.org/1999/xlink" width="16px" height="16px" viewBox="0 0 16 16" version="1.1">
<g id="surface1">
<path style=" stroke:none;fill-rule:nonzero;fill:rgb(25.882354%,25.882354%,25.882354%);fill-opacity:1;" d="M 9.605469 3.761719 C 9.605469 4.675781 8.863281 5.417969 7.949219 5.417969 C 7.039062 5.417969 6.296875 4.675781 6.296875 3.761719 C 6.296875 2.851562 7.039062 2.109375 7.949219 2.109375 C 8.863281 2.109375 9.605469 2.851562 9.605469 3.761719 Z M 9.605469 3.761719 "/>
<path style=" stroke:none;fill-rule:nonzero;fill:rgb(25.882354%,25.882354%,25.882354%);fill-opacity:1;" d="M 13.90625 3.761719 C 13.90625 4.675781 13.164062 5.417969 12.25 5.417969 C 11.335938 5.417969 10.597656 4.675781 10.597656 3.761719 C 10.597656 2.851562 11.335938 2.109375 12.25 2.109375 C 13.164062 2.109375 13.90625 2.851562 13.90625 3.761719 Z M 13.90625 3.761719 "/>
<path style=" stroke:none;fill-rule:nonzero;fill:rgb(25.882354%,25.882354%,25.882354%);fill-opacity:1;" d="M 5.304688 3.761719 C 5.304688 4.675781 4.5625 5.417969 3.652344 5.417969 C 2.738281 5.417969 1.996094 4.675781 1.996094 3.761719 C 1.996094 2.851562 2.738281 2.109375 3.652344 2.109375 C 4.5625 2.109375 5.304688 2.851562 5.304688 3.761719 Z M 5.304688 3.761719 "/>
<path style="fill-rule:nonzero;fill:rgb(25.882354%,25.882354%,25.882354%);fill-opacity:1;stroke-width:0.264583;stroke-linecap:butt;stroke-linejoin:miter;stroke:rgb(0%,0%,0%);stroke-opacity:1;stroke-miterlimit:4;" d="M 444.957509 85.346318 C 444.957509 79.471879 440.207962 74.722333 434.333523 74.722333 L 211.604793 74.722333 C 214.854482 49.349756 221.978802 23.102262 232.977752 -6.019957 C 236.852382 -16.518954 224.603551 -25.393107 215.854387 -18.518763 L 67.743531 97.845125 C 62.119068 102.219707 62.119068 110.718895 67.743531 115.093478 L 215.854387 231.582354 C 222.978707 237.081828 233.227728 232.207294 233.602692 223.333141 C 233.72768 221.833285 233.477704 220.458416 232.977752 219.083547 C 221.978802 189.83634 214.854482 163.588847 211.604793 138.21627 L 434.333523 138.21627 C 440.207962 138.21627 444.957509 133.466723 444.957509 127.717272 Z M 444.957509 85.346318 " transform="matrix(0.031253,0,0,0.031253,0,6.719392)"/>
</g>
</svg>
